X:1
T:Aura ch'intorno
T:Aura ch'intorno
T:Giovanni Ghizzolo
C:Giovanni Ghizzolo
%%score 1 { 2 | 3 }
L:1/8
Q:1/4=120
M:4/4
K:F
V:1 treble nm="Soprano" snm="S"
V:2 treble nm="MusicXML Part"
V:3 bass 
V:1
"^Source: Madrigali et Arie---Libro secondo---Venetia---A.Raverij---1609.\nEditor André Vierendeels (14/05/07)\nContinuo: André Vierendeels" z4 d4"^Aura ch'intorno""^MADRIGALE" | %1
w: Au-|
 BdBG B4 | AFGA B2 F2 | G4 GGAB | cABc d4- | d2 c/B/A A4 | G8 |: z2 cG c2 BA | AAdc d2 cB | %9
w: ra ch'in- tor- no gi-|ri ai ru- gia- do- si|fio- ri del par- go-|let- * * * *|* * * to'a- mo-|re,|e che'i gi- gli'e le|ro- se can- di- det- ti'a- mo-|
 c2 cd BABG | A4 A4 | z2 Bc d4- | d2 cB c4 | c4 z2 A2 | c4- cAGF | G2 G3 EGA | B>c B>c d4- | %17
w: ro- se scher- zan- do go- di'e|mi- ri,|spi- ra den-|* tr'al mio co-|re nu-|tri _ sc'i miei de-|si- ri de lor so-|a- * * * *|
 d2 Bc A4 |1 G4 z4 :|2 B>c A/B/G d4- || d2 GA A4 | G8 |] %22
w: * vi o- do-|ri.|a- * * * * *|* vi'o do- lo-|ri.|
V:2
 [DB]8- | [DB]8 | [FA]8 | [EGc]8 | [FAc]6 [GB]2 | F2 G4 ^F2 | [DG=B]4 E4- |: [EGc]8 | %8
 [FAc]4 [DF]4 | [FA]4 [DG]4 | [^FA]8 | [FB]8 | [F-Ac-]8 | [FAc]8 | [Gc]4 [FA]4 | [EGc]8 | [DB]8 | %17
 F2 G4 ^F2 |1 [DG=B]8 :|2 [DB]8 || [^FA]2 G4 F2 | [DG=B]8 |] %22
V:3
 G,8 | G,,8 | D,8 | C,8 | F,,6 G,,2 | D,8 | G,,4 C,4- |: C,8 | F,4 B,,4 | F,4 G,4 | D,6 D,C, | %11
 B,,6 A,,G,, | F,,8 | F,,4 F,4 | E,4 D,4 | C,8 | G,,8 | D,4 D,,4 |1 G,,8 :|2 G,,8 || %20
"^#" D,2"^4" D,2"^4" D,,2"^3""^Note: original keys: Ut 1st, Fa 4rth" D,,2 | G,,8 |] %22

